X: 04069
T: OH, CAROLYN'S PARROT!
C: Bob McQuillen 16 Mar 80
B: Bob's Note Book 04 #69
%R: reel
Z: 2020 John Chambers <jc:trillian.mit.edu>
M: C
L: 1/8
K: G
BA \
| GDB,D EDB,D | GBAB GDB,D | GDGB dgbg | agfe dcBA |
| GDB,D EDB,D | GBAB GDGA | Bdga gedB | AGAB G2 :|
|: Bc \
| dedB GBdg | eceg dBGB | dedB GBdg | edcB A2BA |
| GABA GDB,D | ECEG cedc | BGDB cAFG | A2GF G2 :|
%%begintext align
%% A lot of good-time music and dancing
%% are being generated by a fine caller and
%% musician from Hopkingon, N.H. named
%% Carolyn Parrott. I promised you a reel,
%% Carolyn, and I sure hope you like it!
%%endtext

%%sep 1 1 500

%%sep 1 1 500

